icons/folder-bibliography.svg

<svg xmlns="http://www.w3.org/2000/svg" viewBox="0 0 16 16">
<path id="folder" fill="#a1887f" d="m6.922 3.768-.644-.536A1 1 0 0 0 5.638 3H2a1 1 0 0 0-1 1v8a1 1 0 0 0 1 1h12a1 1 0 0 0 1-1V5a1 1 0 0 0-1-1H7.562a1 1 0 0 1-.64-.232" />
<g id="motive">
<path fill="#8d6e63" d="m 9,11 v 2 c 0,0.554 0.446,1 1,1 h 5.5 C 15.777,14 16,13.777 16,13.5 V 11 Z" />
<path fill="#ffe082" d="m 14,12 v 1 h 1 v -1 z" />
<path fill="#fff8e1" d="m 10,12 c 0,0.554 0.446,1 1,1 h 4 c -0.55228,0 -1,-0.44772 -1,-1 z" />
<path fill="#ff1744" d="m 11,12.5 h 1 V 15 h -1 z" />
<path fill="#d7ccc8" d="M 10,5 C 9.446,5 9,5.446 9,6 v 7 c 0,-0.55228 0.44772,-1 1,-1 h 5.5 c 0.277,0 0.5,-0.223 0.5,-0.5 v -6 C 16,5.223 15.777,5 15.5,5 Z" />
<path fill="#5d4037" d="m 10,6 v 0.5 h 0.5 C 11,6.5 11,6.61192 11,6.75 v 3.5 c 0,0.13808 0,0.25 -0.5,0.25 H 10 V 11 h 3 c 1.10456,0 2,-0.61561 2,-1.375 C 14.99978,8.99528 14.37738,8.44616 13.48925,8.29211 13.81791,8.04005 13.99978,7.71352 14,7.375 14,6.61561 13.10456,6 12,6 Z m 2.24802,0.52712 C 12.68033,6.62362 13,6.96666 13,7.375 13,7.85825 12.55228,8.25 12,8.25 V 6.75 C 12,6.61192 12.11353,6.49709 12.24802,6.52712 M 12,8.75 h 1 c 0.55228,0 1,0.39175 1,0.875 0,0.48325 -0.44772,0.875 -1,0.875 H 12.25 A 0.25,0.25 0 0 1 12,10.25 Z" />
</g>
</svg>

<svg xmlns="http://www.w3.org/2000/svg" viewBox="0 0 16 16"><path id="folder" fill="#a1887f" d="m6.922 3.768-.644-.536A1 1 0 0 0 5.638 3H2a1 1 0 0 0-1 1v8a1 1 0 0 0 1 1h12a1 1 0 0 0 1-1V5a1 1 0 0 0-1-1H7.562a1 1 0 0 1-.64-.232"/><g id="motive"><path fill="#8d6e63" d="M9 11v2c0 .554.446 1 1 1h5.5c.277 0 .5-.223.5-.5V11Z"/><path fill="#ffe082" d="M14 12v1h1v-1z"/><path fill="#fff8e1" d="M10 12c0 .554.446 1 1 1h4a1 1 0 0 1-1-1z"/><path fill="#ff1744" d="M11 12.5h1V15h-1z"/><path fill="#d7ccc8" d="M10 5c-.554 0-1 .446-1 1v7a1 1 0 0 1 1-1h5.5c.277 0 .5-.223.5-.5v-6c0-.277-.223-.5-.5-.5Z"/><path fill="#5d4037" d="M10 6v.5h.5c.5 0 .5.112.5.25v3.5c0 .138 0 .25-.5.25H10v.5h3c1.105 0 2-.616 2-1.375 0-.63-.623-1.179-1.51-1.333.328-.252.51-.578.51-.917C14 6.615 13.105 6 12 6Zm2.248.527c.432.097.752.44.752.848 0 .483-.448.875-1 .875v-1.5c0-.138.114-.253.248-.223M12 8.75h1c.552 0 1 .392 1 .875s-.448.875-1 .875h-.75a.25.25 0 0 1-.25-.25Z"/></g></svg>
